X:115
M:6/8
L:1/8
Q:3/8=120
K:A
EFE|F2 F EFE| A2 A B2 c|d2 c BcA|G2 F EFE|\
|:efe|c2 A B2 c|d2 d ded|B2 G A2B|c2 c cdc|\

